X: 930
T: Step Around Johnny
B: jims roots
M:C
L:1/8
Q: 1/4=100
K:D
V:1 
ABc |:"D" d2d2  BcdB | AGFED2 (3ABc | d2d2BBd2 | (ef2)f f2fe |
 d2d2 BcdB | AGFE D2F2 | "A"EDED FDE2 |[1 "D"D3ED2Bc:|[2 "D"D4 D2E2 ||
|:"D"F3EF2A2- | ABAF DDD2 | "G"B3B B2A2- | "D" ABAD FDED |
F3F F2A2- | ABAF EDD2 | "A"EDED FDF2 | [1"D"D4 D2E2 :| [2 "D"D4 z4 |]
% abcbook-tune_id 6298c2870ca530137bc34af9


% abcbook-boost 0
% abcbook-tablature 
% abcbook-transpose 
% abcbook-lastupdated 1654178440904
% abcbook-soundfonts 
% abcbook-repeats 1


